source/docs/software/vision-processing/introduction/diagrams/retroreflectivity-vs-reflectivity.drawio.svg

<svg xmlns="http://www.w3.org/2000/svg" xmlns:xlink="http://www.w3.org/1999/xlink" width="470" height="244" viewBox="-0.5 -0.5 470 244" style="background-color:#fff"><defs><style>@import url(https://fonts.googleapis.com/css?family=Lato);</style></defs><path d="M151.279 191.99l20-34.64 8.66 5 15.65 22.892 56.292 32.5-8 13.856-56.291-32.5-27.651-2.107z" fill="#fff" stroke="#0080f0" stroke-width="2" stroke-miterlimit="10" pointer-events="all"/><path d="M159.939 196.99l20-34.64m59.612 66.748l8-13.856" fill="none" stroke="#0080f0" stroke-width="2" stroke-miterlimit="10" pointer-events="all"/><ellipse cx="204.58" cy="194.67" rx="1.6" ry="3" fill="none" stroke="#0080f0" stroke-width="2" transform="rotate(-60 204.58 199.67)" pointer-events="all"/><path d="M17 230V0m4 0v230M21 0" fill="none" stroke="#b85450" stroke-linejoin="round" stroke-miterlimit="10" pointer-events="all"/><switch transform="rotate(-90 6 107.17)"><foreignObject style="text-align:left" pointer-events="none" width="100%" height="100%" requiredFeatures="http://www.w3.org/TR/SVG11/feature#Extensibility" overflow="visible"><div xmlns="http://www.w3.org/1999/xhtml" style="align-items:unsafe center;justify-content:unsafe center;width:1px;height:1px;padding-top:107px;margin-left:7px" display="flex"><div style="box-sizing:border-box;text-align:center" font-size="0"><div style="line-height:1.2;background-color:#fff;white-space:nowrap" display="inline-block" font-size="12" font-family="Verdana" color="#000" pointer-events="all">Retroreflective Surface</div></div></div></foreignObject><text x="7" y="111" font-family="Verdana" font-size="12" text-anchor="middle">Retroreflective Surface</text></switch><path d="M151.36 175.56l-5.55 8.32-103.36-68.9-5.82 8.73-7.21-23.43 24.4-2.36-5.82 8.74zM26.57 74.4l5.69-8.23 113.55 78.62 5.98-8.63 6.8 23.56-24.45 1.92 5.98-8.63z" fill="#fff2cc" stroke="#d6b656" stroke-linejoin="round" stroke-miterlimit="10" pointer-events="all"/><path d="M362.57 182.704l22.944-32.766 8.191 5.736 13.596 24.17 53.245 37.282-9.177 13.106-53.245-37.282-27.362-4.51z" fill="#fff" stroke="#0080f0" stroke-width="2" stroke-miterlimit="10" pointer-events="all"/><path d="M370.762 188.44l22.943-32.766m53.568 71.69l9.177-13.106" fill="none" stroke="#0080f0" stroke-width="2" stroke-miterlimit="10" pointer-events="all"/><ellipse cx="415" cy="190" rx="1.6" ry="3" fill="none" stroke="#0080f0" stroke-width="2" transform="rotate(-55 415 195)" pointer-events="all"/><path d="M287 240V10m4 0v230m0-230" fill="none" stroke="#000" stroke-linejoin="round" stroke-miterlimit="10" pointer-events="all"/><switch transform="rotate(-90 273.58 110.45)"><foreignObject style="text-align:left" pointer-events="none" width="100%" height="100%" requiredFeatures="http://www.w3.org/TR/SVG11/feature#Extensibility" overflow="visible"><div xmlns="http://www.w3.org/1999/xhtml" style="align-items:unsafe center;justify-content:unsafe center;width:1px;height:1px;padding-top:110px;margin-left:274px" display="flex"><div style="box-sizing:border-box;text-align:center" font-size="0"><div style="line-height:1.2;background-color:#fff;white-space:nowrap" display="inline-block" font-size="12" font-family="Verdana" color="#000" pointer-events="all">Reflective Surface</div></div></div></foreignObject><text x="274" y="114" font-family="Verdana" font-size="12" text-anchor="middle">Reflective Surface</text></switch><path d="M371.5 155.64l-5.81 8.14-53.73-38.38-6.1 8.55-6.45-23.66 24.47-1.57-6.11 8.55zm-69.1-52.94l-6-8 44-33-6.3-8.4 24.5 1-5.9 23.8-6.3-8.4z" fill="#fff2cc" stroke="#d6b656" stroke-linejoin="round" stroke-miterlimit="10" pointer-events="all"/><path d="M291 105h70m-70 0l45-34m-45 34l56 38" fill="none" stroke="#000" stroke-miterlimit="10" stroke-dasharray="3 3" pointer-events="stroke"/><path d="M323.94 104.5c.34 6.91-.75 13.81-3.21 20.28" fill="none" stroke="#6c8ebf" stroke-miterlimit="10" pointer-events="all"/><path d="M318.186 85.074a50.111 50.111 0 015.316 19.832" fill="none" stroke="#b85450" stroke-miterlimit="10" pointer-events="all"/><switch><a transform="translate(0 -5)" xlink:href="https://desk.draw.io/support/solutions/articles/16000042487" target="_blank"><text text-anchor="middle" font-size="10" x="50%" y="100%">Viewer does not support full SVG 1.1</text></a></switch></svg>

<?xml version="1.0" encoding="UTF-8"?>
<!DOCTYPE svg PUBLIC "-//W3C//DTD SVG 1.1//EN" "http://www.w3.org/Graphics/SVG/1.1/DTD/svg11.dtd">
<svg xmlns="http://www.w3.org/2000/svg" xmlns:xlink="http://www.w3.org/1999/xlink" version="1.1" width="470px" height="244px" viewBox="-0.5 -0.5 470 244" content="&lt;mxfile host=&quot;Electron&quot; modified=&quot;2020-04-26T21:13:06.119Z&quot; agent=&quot;5.0 (Macintosh; Intel Mac OS X 10_14_6) AppleWebKit/537.36 (KHTML, like Gecko) draw.io/13.0.1 Chrome/80.0.3987.163 Electron/8.2.1 Safari/537.36&quot; etag=&quot;Fg61G3OSpYzmSaP8pBl1&quot; version=&quot;13.0.1&quot; type=&quot;device&quot;&gt;&lt;diagram id=&quot;zwuFPUKYyRiA6btPAQWE&quot; name=&quot;Page-1&quot;&gt;7Vldj6M2FP01eQwy/gDyOJmZbKXuqqsdqZX65oABdxwcGWcmM7++JhiCIbthkybtdhONRuTYvuB7zv1wmKD71faDouv8k0yYmECQbCfoYQJhCIn5XwFvNRBEoAYyxZMa8vfAE39nFmymbXjCSmeillJovnbBWBYFi7WDUaXkqzstlcK965pmbAA8xVQM0T94ovMajQjY478wnuXNnX1gR1a0mWyBMqeJfHUgttULWWj7iB+plhPymGtd7e1uAhfmL63GvUzKTDC65qUXy5WB49JMWaR0xUXl2N1SYxI9TtC9klLXV6vtPRMVHY2r6/suvjLa7lWxQo9ZEPw2I39y9GueLBN29yn/a/k8n1orL1RsrA/t/vVb49Rcr4S58ido/sKU5sbdH+mSic+y5JrLwowtpdZmp2hOBc8qIDbPxJQBRDVzTuPnTMlNkdxLIdXOLEp3n47RO7tWy7VBS63kc8sibJGOBQAisADVSENW9SWhZc4S+8WMrKttrLZZJXiPyzL0uJFf6aXCTBS1GOZKamr3Mg2qhRWTi4aw35lKaEENPPR540CzCbbtQJaDD0yumFZvZoodhTPikQjsP7i2YEMO4ZkXhDX0utcwtiLMu/Jt1EutJrP2ZnsZmAurhO9QBTyuisazghfPxjEdkaRciC7PUczi+BB/y4hgcoqzWeKkgaGrO44jBxzXYIoJw/qLmzwOOdPe4bPk5klaJn0EHOow6vFRyo2KmV3VjcwjhmCfWE1VxvTA0I7bdtun092k7w7fX4xJqVgqTJquPATB00alNGYDIRjZa1cAgyTQj/AVT5Jq+Vyxkr/T5c5UJYR1tcPdnsl8Qh7G5Y9cKv5uFESFtTJaTt/Ufj+g26pln7fJt18N9CnwfD9woxv+I8Kb+r5jdQqBh5BrRaZpyS6iFjw+ORj5bO+qum7cz4rEXj7EJvWWPP522khTeDhtJMEyIMGPmzZg4EY7ik5NG7hn6Mppg9yEcF796PEHwxOF0C5shBBcVwjBcSH8bE0kIRdtIgkIXMaxDcZ/rWUMxyeDAy3jjxnAGPQaQHxiAPcNtQfqazWAw2Pgl5+x92tEfHbvBzxAkBuizVH77N4v8DB0LUfmbq6dy3V/0a3on5czoiO1enTO8HuGrpwzZjchnCeEHn9wNjtRCL3uDxJ83eKBjiuhw3ohC9btsPz/SSvg5mTUz8jj2Txi6NJsjjje39gczSYO3dgM/euyOeKMfmNzNJskcg1hdFU24bBNH7B59HR9+KTcYbl/3F1SU6Q9quoqTJW+K7K6a/cghgBHUYhR6M98P0K2wLcTEAgjEoLZDPuhqXhwWOATyqL0YIEP4ogt04seoxEivdI5fPPSHpmv9OplRDX9z3Pc/SUE4qu8E/oe0rHXC2TDuxcEs/0nuJwMzNf9O986M+zfxaPHvwE=&lt;/diagram&gt;&lt;/mxfile&gt;" style="background-color: rgb(255, 255, 255);"><defs><style type="text/css">@import url(https://fonts.googleapis.com/css?family=Lato);&#xa;</style></defs><g><path d="M 184.58 149.67 L 224.58 149.67 L 224.58 159.67 L 212.58 184.67 L 212.58 249.67 L 196.58 249.67 L 196.58 184.67 L 184.58 159.67 Z" fill="#ffffff" stroke="#0080f0" stroke-width="2" stroke-miterlimit="10" transform="rotate(-60,204.58,199.67)" pointer-events="all"/><path d="M 184.58 159.67 L 224.58 159.67 M 196.58 244.67 L 212.58 244.67" fill="none" stroke="#0080f0" stroke-width="2" stroke-miterlimit="10" transform="rotate(-60,204.58,199.67)" pointer-events="all"/><ellipse cx="204.58" cy="194.67" rx="1.6" ry="3" fill="none" stroke="#0080f0" stroke-width="2" transform="rotate(-60,204.58,199.67)" pointer-events="all"/><path d="M 17 230 L 17 0 M 21 0 L 21 230 M 21 0" fill="none" stroke="#b85450" stroke-linejoin="round" stroke-miterlimit="10" pointer-events="all"/><g transform="translate(-0.5 -0.5)rotate(-90 6.5 107.16999999999996)"><switch><foreignObject style="overflow: visible; text-align: left;" pointer-events="none" width="100%" height="100%" requiredFeatures="http://www.w3.org/TR/SVG11/feature#Extensibility"><div xmlns="http://www.w3.org/1999/xhtml" style="display: flex; align-items: unsafe center; justify-content: unsafe center; width: 1px; height: 1px; padding-top: 107px; margin-left: 7px;"><div style="box-sizing: border-box; font-size: 0; text-align: center; "><div style="display: inline-block; font-size: 12px; font-family: Verdana; color: #000000; line-height: 1.2; pointer-events: all; background-color: #ffffff; white-space: nowrap; ">Retroreflective Surface</div></div></div></foreignObject><text x="7" y="111" fill="#000000" font-family="Verdana" font-size="12px" text-anchor="middle">Retroreflective Surface</text></switch></g><path d="M 151.36 175.56 L 145.81 183.88 L 42.45 114.98 L 36.63 123.71 L 29.42 100.28 L 53.82 97.92 L 48 106.66 Z" fill="#fff2cc" stroke="#d6b656" stroke-linejoin="round" stroke-miterlimit="10" pointer-events="all"/><path d="M 26.57 74.4 L 32.26 66.17 L 145.81 144.79 L 151.79 136.16 L 158.59 159.72 L 134.14 161.64 L 140.12 153.01 Z" fill="#fff2cc" stroke="#d6b656" stroke-linejoin="round" stroke-miterlimit="10" pointer-events="all"/><path d="M 395 145 L 435 145 L 435 155 L 423 180 L 423 245 L 407 245 L 407 180 L 395 155 Z" fill="#ffffff" stroke="#0080f0" stroke-width="2" stroke-miterlimit="10" transform="rotate(-55,415,195)" pointer-events="all"/><path d="M 395 155 L 435 155 M 407 240 L 423 240" fill="none" stroke="#0080f0" stroke-width="2" stroke-miterlimit="10" transform="rotate(-55,415,195)" pointer-events="all"/><ellipse cx="415" cy="190" rx="1.6" ry="3" fill="none" stroke="#0080f0" stroke-width="2" transform="rotate(-55,415,195)" pointer-events="all"/><path d="M 287 240 L 287 10 M 291 10 L 291 240 M 291 10" fill="none" stroke="#000000" stroke-linejoin="round" stroke-miterlimit="10" pointer-events="all"/><g transform="translate(-0.5 -0.5)rotate(-90 274.0799999999999 110.45000000000005)"><switch><foreignObject style="overflow: visible; text-align: left;" pointer-events="none" width="100%" height="100%" requiredFeatures="http://www.w3.org/TR/SVG11/feature#Extensibility"><div xmlns="http://www.w3.org/1999/xhtml" style="display: flex; align-items: unsafe center; justify-content: unsafe center; width: 1px; height: 1px; padding-top: 110px; margin-left: 274px;"><div style="box-sizing: border-box; font-size: 0; text-align: center; "><div style="display: inline-block; font-size: 12px; font-family: Verdana; color: #000000; line-height: 1.2; pointer-events: all; background-color: #ffffff; white-space: nowrap; ">Reflective Surface</div></div></div></foreignObject><text x="274" y="114" fill="#000000" font-family="Verdana" font-size="12px" text-anchor="middle">Reflective Surface</text></switch></g><path d="M 371.5 155.64 L 365.69 163.78 L 311.96 125.4 L 305.86 133.95 L 299.41 110.29 L 323.88 108.72 L 317.77 117.27 Z" fill="#fff2cc" stroke="#d6b656" stroke-linejoin="round" stroke-miterlimit="10" pointer-events="all"/><path d="M 302.4 102.7 L 296.4 94.7 L 340.4 61.7 L 334.1 53.3 L 358.6 54.3 L 352.7 78.1 L 346.4 69.7 Z" fill="#fff2cc" stroke="#d6b656" stroke-linejoin="round" stroke-miterlimit="10" pointer-events="all"/><path d="M 291 105 L 361 105" fill="none" stroke="#000000" stroke-miterlimit="10" stroke-dasharray="3 3" pointer-events="stroke"/><path d="M 291 105 L 336 71" fill="none" stroke="#000000" stroke-miterlimit="10" stroke-dasharray="3 3" pointer-events="stroke"/><path d="M 291 105 L 347 143" fill="none" stroke="#000000" stroke-miterlimit="10" stroke-dasharray="3 3" pointer-events="stroke"/><path d="M 323.94 104.5 C 324.28 111.41 323.19 118.31 320.73 124.78" fill="none" stroke="#6c8ebf" stroke-miterlimit="10" pointer-events="all"/><path d="M 323.52 105.17 C 323.86 112.08 322.77 118.98 320.31 125.45" fill="none" stroke="#b85450" stroke-miterlimit="10" transform="rotate(-24,273.58,107.67)" pointer-events="all"/></g><switch><g requiredFeatures="http://www.w3.org/TR/SVG11/feature#Extensibility"/><a transform="translate(0,-5)" xlink:href="https://desk.draw.io/support/solutions/articles/16000042487" target="_blank"><text text-anchor="middle" font-size="10px" x="50%" y="100%">Viewer does not support full SVG 1.1</text></a></switch></svg>
